!!!COM:	Bach, Johann Sebastian
!!!CDT:	1685/02/21/-1750/07/28/
!!!OTL@@DE:	Ich bin ja, Herr, in deiner Macht
!!!SCT:	BWV 345
!!!PC#:	251
!!!AGN:	chorale
**kern	**kern	**kern	**kern
*ICvox	*ICvox	*ICvox	*ICvox
*Ibass	*Itenor	*Ialto	*Isoprn
*I"Bass	*I"Tenor	*I"Alto	*I"Soprano
*>[A,A,B]	*>[A,A,B]	*>[A,A,B]	*>[A,A,B]
*>norep[A,B]	*>norep[A,B]	*>norep[A,B]	*>norep[A,B]
*>A	*>A	*>A	*>A
*	*oclefC4	*oclefC3	*oclefC1
*clefF4	*clefGv2	*clefG2	*clefG2
*k[b-e-]	*k[b-e-]	*k[b-e-]	*k[b-e-]
*g:	*g:	*g:	*g:
*M4/4	*M4/4	*M4/4	*M4/4
*met(c)	*met(c)	*met(c)	*met(c)
*MM100	*MM100	*MM100	*MM100
4G	4B-	4d	4g
=1	=1	=1	=1
4G	8cL	4e-	4a
.	8B-J	.	.
4F#	4A	4d	8aL
.	.	.	16b-L
.	.	.	16ccJJ
4.G	4.G	4.d	8b-L
.	.	.	8gJ
.	.	.	[4dd
8F	8A	8d	.
=2	=2	=2	=2
8E-L	4B-	4g	8ddL]
8DJ	.	.	16ccL
.	.	.	16b-JJ
8E-L	8cL	8f#L	8aL
8CJ	8B-J	8gJ	8gJ
4D;	4A;	4d;	4f#;
4D	4d	4f#	4a
=3	=3	=3	=3
4G	4d	4g	4b-
4A	4c	4fnX	8ccL
.	.	.	16ddL
.	.	.	16ee-JJ
4.B-	4.B-	4.f	8ddL
.	.	.	8b-J
.	.	.	[4ff
8A	8c	8f	.
=4	=4	=4	=4
8GL	4d	4b-	8ffL]
8FJ	.	.	16eeL
.	.	.	16ddJJ
8EL	8GL	8ccL	8ccL
8CJ	8cJ	8enXJ	8b-J
4F;	4c;	4f;	4a;
4B-	4B-	4f	4dd
=5	=5	=5	=5
4E	4B-	4g	4cc#
4F	4A	4f	4dd
4C#	4A	4e	8eeL
.	.	.	16ffL
.	.	.	16ggJJ
4D	8AL	4d	8ffL
.	8dJ	.	8eeJ
=6	=6	=6	=6
4A	8dL	8eL	2ee
.	16c#L	8fJ	.
.	16BJJ	.	.
4AA	4c#	4g	.
4D;	4A;	4f#;	4dd;
=:|!	=:|!	=:|!	=:|!
*>B	*>B	*>B	*>B
4F#	4d	4a	4dd
=7	=7	=7	=7
4G	4d	4g	8b-XL
.	.	.	8aJ
4FnX	4d	4g	8bL
.	.	.	8ddJ
4.E-	4.c	4.g	8ggL
.	.	.	8ee-J
.	.	.	[4cc
8A-	8c	8e-	.
=8	=8	=8	=8
8FL	4c	4a-	8ccL]
8DJ	.	.	8ffJ
4G	4B	4g	8ee-L
.	.	.	8ddJ
4C	4c	4g	4ee-
4c;	4d;	4f#;	4a;
=9	=9	=9	=9
8B-XL	4d	8gL	4dd
8AJ	.	8fnXJ	.
8B-L	4c	4e	4g
8cJ	.	.	.
8AL	8cL	8f#L	8ccL
8GJ	8B-J	8gJ	16ddL
.	.	.	16ee-JJ
4F#	8AL	4a	8ddL
.	8dJ	.	8ccJ
=10	=10	=10	=10
4G	4d	8aL	4b-
.	.	8gJ	.
4D	8cL	4f#	8aL
.	8B-J	.	8gJ
4GG;	4B-;	4d;	4g;
==	==	==	==
*-	*-	*-	*-
!!!YOR1: 371 vierstimmige Choralges&auml;nge von Johann Sebastian Bach, 
!!!YOR2: 4th ed. by Alfred D&ouml;rffel (Leipzig: Breitkopf und H&auml;rtel, 
!!!YOR2: c.1875). 178 pp. Plate "V.A.10".  reprint: J.S. Bach, 371 Four-Part 
!!!YOR4: Chorales (New York: Associated Music Publishers, Inc., c.1940).
!!!SMS: B&H, 4th ed, Alfred D&ouml;rffel, c.1875, plate V.A.10
!!!EED:  Craig Stuart Sapp
!!!EEV:  2009/05/22
